packages/kaspersky-hexa-ui-icons/src/iconsSVGs/24/ArrowDown1.svg

<svg width="24" height="24" viewBox="0 0 24 24" fill="none" xmlns="http://www.w3.org/2000/svg">
<path fill-rule="evenodd" clip-rule="evenodd" d="M6.29336 8.79243C6.68414 8.40216 7.31731 8.40258 7.70757 8.79336L11.9943 13.0858L16.2934 8.79243C16.6841 8.40216 17.3173 8.40258 17.7076 8.79336C18.0978 9.18414 18.0974 9.81731 17.7066 10.2076L12.7 15.2076C12.5124 15.395 12.258 15.5002 11.9927 15.5C11.7275 15.4998 11.4732 15.3943 11.2858 15.2066L6.29243 10.2066C5.90216 9.81586 5.90258 9.18269 6.29336 8.79243Z" fill="black"/>
</svg>

<svg xmlns="http://www.w3.org/2000/svg" width="24" height="24" fill="none" viewBox="0 0 24 24"><path fill="#000" fill-rule="evenodd" d="M6.2934 8.7924c.3907-.3902 1.024-.3898 1.4142.001l4.2867 4.2924 4.2991-4.2934c.3907-.3902 1.0239-.3898 1.4142.001s.3898 1.024-.001 1.4142l-5.0066 5a.9997.9997 0 0 1-1.4142-.001l-4.9934-5c-.3902-.3907-.3898-1.024.001-1.4142" clip-rule="evenodd"/></svg>
